assets/efishery/kolam-bundar-fill.svg

<svg width="24" height="25" viewBox="0 0 24 25" fill="none" xmlns="http://www.w3.org/2000/svg">
<path fill-rule="evenodd" clip-rule="evenodd" d="M19.5029 6.5993C19.9466 6.86152 20.5 7.31842 20.5 8.02344V17.0234C20.5 17.7285 19.9466 18.1854 19.5029 18.4476C19.0091 18.7395 18.3444 18.9764 17.5888 19.1653C16.066 19.546 14.002 19.7734 11.75 19.7734C9.49801 19.7734 7.43404 19.546 5.91124 19.1653C5.15562 18.9764 4.49092 18.7395 3.99706 18.4476C3.55341 18.1854 3 17.7285 3 17.0234V8.02344C3 7.31842 3.55341 6.86152 3.99706 6.5993C4.49092 6.30739 5.15562 6.07052 5.91124 5.88162C7.43404 5.50092 9.49801 5.27344 11.75 5.27344C14.002 5.27344 16.066 5.50092 17.5888 5.88162C18.3444 6.07052 19.0091 6.30739 19.5029 6.5993ZM4.56602 8.02344C4.60757 8.05788 4.66938 8.10254 4.7603 8.15628C5.07609 8.34293 5.58296 8.53702 6.27505 8.71004C7.64769 9.0532 9.58371 9.27344 11.75 9.27344C13.9163 9.27344 15.8523 9.0532 17.225 8.71004C17.917 8.53702 18.4239 8.34293 18.7397 8.15628C18.8306 8.10254 18.8924 8.05787 18.934 8.02344C18.8924 7.989 18.8306 7.94434 18.7397 7.8906C18.4239 7.70395 17.917 7.50985 17.225 7.33683C15.8523 6.99367 13.9163 6.77344 11.75 6.77344C9.58371 6.77344 7.64769 6.99367 6.27505 7.33683C5.58296 7.50985 5.07609 7.70395 4.7603 7.8906C4.66938 7.94434 4.60757 7.989 4.56602 8.02344ZM4.5 13.3659V14.3956C5.63909 14.6682 6.91857 14.8713 8.25 15.0034V18.0667C8.57025 18.107 8.90423 18.142 9.25 18.1712V15.0886C10.1073 15.1499 10.9767 15.1825 11.8355 15.1859C12.65 15.1892 13.4615 15.1663 14.25 15.1158V18.1712C14.5958 18.142 14.9297 18.107 15.25 18.0667V15.0354C16.6466 14.8994 17.9375 14.6692 19 14.3357V13.2824C17.9995 13.6341 16.7019 13.8839 15.25 14.0305V10.5778C14.9268 10.6159 14.5929 10.6489 14.25 10.6763V14.1136C13.4723 14.1651 12.6624 14.1893 11.8395 14.1859C10.9751 14.1825 10.1041 14.1487 9.25 14.086V10.6763C8.90709 10.6489 8.57321 10.6159 8.25 10.5778V13.9983C6.89848 13.8603 5.61538 13.6478 4.5 13.3659Z" fill="#1D1D1D"/>
</svg>

<svg viewBox="0 0 24 25" xmlns="http://www.w3.org/2000/svg">
  <path fill-rule="evenodd" clip-rule="evenodd" d="M19.503 6.6c.444.262.997.718.997 1.423v9c0 .706-.553 1.162-.997 1.425-.494.291-1.159.528-1.914.717-1.523.381-3.587.608-5.839.608-2.252 0-4.316-.227-5.839-.608-.755-.189-1.42-.425-1.914-.717-.444-.263-.997-.72-.997-1.425v-9c0-.705.553-1.161.997-1.424.494-.292 1.159-.528 1.914-.717 1.523-.381 3.587-.609 5.839-.609 2.252 0 4.316.228 5.839.609.755.189 1.42.425 1.914.717zM4.566 8.022c.042.035.103.08.194.133.316.187.823.381 1.515.554 1.373.343 3.309.563 5.475.563 2.166 0 4.102-.22 5.475-.563.692-.173 1.199-.367 1.515-.554.09-.053.152-.098.194-.133a1.513 1.513 0 0 0-.194-.132c-.316-.187-.823-.381-1.515-.554-1.373-.343-3.309-.564-5.475-.564-2.166 0-4.102.22-5.475.564-.692.173-1.199.367-1.515.554-.09.053-.152.098-.194.132zM4.5 13.366v1.03c1.14.272 2.419.475 3.75.607v3.064c.32.04.654.075 1 .104V15.09a38.54 38.54 0 0 0 2.585.097c.815.003 1.626-.02 2.415-.07v3.055c.346-.029.68-.064 1-.104v-3.032c1.397-.136 2.688-.366 3.75-.7v-1.053c-1 .352-2.298.602-3.75.748v-3.452c-.323.038-.657.07-1 .098v3.438a34.48 34.48 0 0 1-2.41.072 37.536 37.536 0 0 1-2.59-.1v-3.41c-.343-.027-.677-.06-1-.098v3.42c-1.352-.138-2.635-.35-3.75-.632z"/>
</svg>
